X: 567
T: Over the Hills and far away
%R: reel
B: "The Compleat Country Dancing-Master" printed by John Walsh, London ca. 1740
S: 6: CCDM2 http://imslp.org/wiki/The_Compleat_Country_Dancing-Master_(Various) V.2 (116)
Z: 2013 John Chambers <jc:trillian.mit.edu>
N: Repeats added to satisfy the "Each strain twice" instruction.
M: C|
L: 1/8
K: C
% - - - - - - - - - - - - - - - - - - - - - - - - -
G2 |\
c2ed cded | c2 A4 G2 | c2ed cdec | f2 d4 G2 |\
c2ed cded | c2A2 f3A | A2GF G2e2 | f2 d4 :|
|: ef |\
g3f e2d2 | c2 A4 ef | g3f e2dc | f2 d4 ef |\
g3f e2d2 | c2A2 f3A | A2GF G2e2 | f2 d4 :|
% - - - - - - - - - - - - - - - - - - - - - - - - -
%%center Each strain twice
%%begintext align
%% The 1st Man and his Partner cross over the 2d Cu. and
%% turn .| Then cross over the 3d Cu. and turn :| Then
%% lead up to the Top and cast off and then right Hand and left
%% quite round .| Then lead thro the 3d Cu. and cast up
%% and turn your partner :|
%%endtext
%%sep 1 8 500

%%sep 1 1 500
%%sep 1 1 500
